X:5959
T:Gan Ainm
R:Strathspey
S:Natalie McMasters
H:
N:
D:Solo Album #1
Z:Adrian Scahill
M:4/4
L:1/8
K:C
A>G|E<A AB cABG|E<G G>A Bd c/2B/2A/2G/2|E<A AB cBce|d<BgB A2AG:||\
A<a a>g edce|d<e g>e d/2c/2B/2A/2 GB|A<a a>g edce|d<BgB A2AG|\
A<a a>g edce|d<e g>e d/2c/2B/2A/2 GB|c<A B/2c/2d/2B/2 edce|d<BgB A2AG||\
